img/play.svg

<svg width="40" height="40" fill="none" xmlns="http://www.w3.org/2000/svg"><path d="M16 29l12-9-12-9v18zm4-29C8.96 0 0 8.96 0 20s8.96 20 20 20 20-8.96 20-20S31.04 0 20 0zm0 36c-8.82 0-16-7.18-16-16S11.18 4 20 4s16 7.18 16 16-7.18 16-16 16z" fill="#0070C9"/></svg>

<svg width="40" height="40" viewBox="0 0 40 40" fill="none" xmlns="http://www.w3.org/2000/svg">
<path d="M16 29L28 20L16 11V29ZM20 0C8.96 0 0 8.96 0 20C0 31.04 8.96 40 20 40C31.04 40 40 31.04 40 20C40 8.96 31.04 0 20 0ZM20 36C11.18 36 4 28.82 4 20C4 11.18 11.18 4 20 4C28.82 4 36 11.18 36 20C36 28.82 28.82 36 20 36Z" fill="#0070C9"/>
</svg>
